X:1
T:Title
%%score { ( 1 4 5 ) | ( 2 3 ) }
L:1/8
M:4/4
K:Eb
V:1 treble nm="Grand Piano"
V:4 treble 
V:5 treble 
V:2 bass 
V:3 bass 
V:1
 z4 z2[Q:1/4=100] C>E | [EG]>[EG] [EG]>[EG] [EG]>A G>F | [DF]6 z2 | %3
 [DF]>[DF] [DF]>[DF] [DF]>G F>E | E6 z2 | E>E E>E E>F E>D | [=B,D]4[K:treble] z4 | %7
 [EG]>A G>F E>F E>D | C4 G2 c>c | c3- c/e/ d>c e>d | [Gc]4 z4 | G3- G/-[Gd]/ c>B d>c | [GB]4 z4 | %13
 F3- F/-[Fc]/ B>A c>B | [FA]6 z2 | [EG]>A G>F E2 [DF]2 | [EG]4 G2 c>c | c3- c/e/ d>c e>d | %18
 [Gc]4 z4 | G3- G/-[Gd]/ c>B d>c | [GB]4 z4 | F3- F/-[Fc]/ B>A c>B | [FA]6 z2 | [EG]>A G>F E2 D2 | %24
 z2 G,2 z z/ G/ G>G | [EG]>A G>G [F=B]2 [Fd]2 |[M:3/4] [Ec]6 |] %27
V:2
 z8 | [C,E,G,]2 [C,E,G,]2 z z/[K:treble] F/ E>D | [=B,,F,G,]2 [B,,F,]2 [B,,F,]4 | %3
 [=B,,F,G,]2 [B,,F,G,]2 z z/ E/ D>C | C2- [C,E,C-]2 [C,-E,-C]2 [C,E,]2 | C>C C>C C>D C>=B, | %6
 =B,,2 B,,2 z2 D>D | z z/[K:treble] F/ E>D[K:bass] z z/ D/ z2 | [C,E,G,]4 z2[K:treble] G>G | %9
 z4[K:treble] G2 G2 | [C,E,G,]2 [C,E,]2 [C,E,G,]2 z2 | z4[K:treble] G2 G2 | %12
 [D,G,B,]2 [D,G,]2 z2[K:treble] F>F | z4[K:treble] F2 F2 | [C,F,A,]2 [C,F,]2 [C,F,]2 [C,E,G,]2 | %15
 z z/[K:treble] F/ E>D[K:bass] [C,E,G,]2 [=B,,F,G,]2 | [C,E,G,]4 z2[K:treble] G>G | %17
 z4[K:treble] G2 G2 | [C,E,G,]2 [C,E,]2 [C,E,G,]2 z2 | z4[K:treble] G2 G2 | %20
 [D,G,B,]2 [D,G,]2 z2[K:treble] F>F | z4[K:treble] F2 F2 | [C,F,A,]2 [C,F,]2 [C,F,]2 [C,E,G,]2 | %23
 z z/[K:treble] F/ E>D[K:bass] [C,E,G,]2 [=B,,F,G,]2 | [C,E,G,]2 [C,E,]2 z z/ E/ E>E | %25
 z z/[K:treble] F/ E>E[K:bass] [=B,,F,G,]4 |[M:3/4] [C,E,G,]6 |] %27
V:3
 x8 | z4 [C,E,G,]4[K:treble] | x8 | z4 [=B,,F,G,]4 | [C,E,G,]2 z2 z4 | %5
 [C,E,G,]2 [C,E,G,]2 [C,E,G,]4 | z4 [=B,,F,G,]4 | [C,E,G,]4[K:treble][K:bass] [=B,,F,G,]4 | %8
 z4 [C,E,G,]4[K:treble] | [C,E,G,]8[K:treble] | x8 | [D,G,B,]8[K:treble] | z4 [C,F,A,]4[K:treble] | %13
 [C,F,A,]8[K:treble] | x8 | [C,E,G,]4[K:treble][K:bass] z4 | z4 [C,E,G,]4[K:treble] | %17
 [C,E,G,]8[K:treble] | x8 | [D,G,B,]8[K:treble] | z4 [C,F,A,]4[K:treble] | [C,F,A,]8[K:treble] | %22
 x8 | [C,E,G,]4[K:treble][K:bass] z4 | z4 [C,E,]4 | [C,E,G,]4[K:treble][K:bass] z4 |[M:3/4] x6 |] %27
V:4
 x8 | x8 | z2 G,2 z2 D>E | x8 | z2 G,2 z2 C>D | x8 | [F,G,]2 [F,G,]2[K:treble] [DG]2 G>G | x8 | %8
 x8 | G4 z4 | z2 G,2 [EG]2 B>B | B4 z4 | z2 B,2 F2 A>A | A4 z4 | z2 A,2 A,>G G>G | x8 | x8 | %17
 G4 z4 | z2 G,2 [EG]2 B>B | B4 z4 | z2 B,2 F2 A>A | A4 z4 | z2 A,2 A,>G G>G | x8 | C6 z2 | x8 | %26
[M:3/4] x6 |] %27
V:5
 x8 | x8 | z4 G,4 | x8 | z4 G,4 | x8 | x4[K:treble] x4 | x8 | x8 | x8 | x8 | x8 | x8 | x8 | x8 | %15
 x8 | x8 | x8 | x8 | x8 | x8 | x8 | x8 | x8 | z4 G,4 | x8 |[M:3/4] x6 |] %27

